!!!COM:	Bach, Johann Sebastian
!!!CDT:	1685/02/21/-1750/07/28/
!!!OTL@@DE:	Nun freut euch, lieben Christen g'mein
!!!SCT:	BWV 388
!!!PC#:	183
!!!AGN:	chorale
**kern	**kern	**kern	**kern
*ICvox	*ICvox	*ICvox	*ICvox
*Ibass	*Itenor	*Ialto	*Isoprn
*I"Bass	*I"Tenor	*I"Alto	*I"Soprano
*>[A,A,B]	*>[A,A,B]	*>[A,A,B]	*>[A,A,B]
*>norep[A,B]	*>norep[A,B]	*>norep[A,B]	*>norep[A,B]
*	*oclefC4	*oclefC3	*oclefC1
*clefF4	*clefGv2	*clefG2	*clefG2
*>A	*>A	*>A	*>A
*k[f#]	*k[f#]	*k[f#]	*k[f#]
*G:	*G:	*G:	*G:
*M4/4	*M4/4	*M4/4	*M4/4
*met(c)	*met(c)	*met(c)	*met(c)
*MM100	*MM100	*MM100	*MM100
8GGL	8BL	4d	4g
8AAJ	8AJ	.	.
=1	=1	=1	=1
8BBL	4G	4d	4g
8C	.	.	.
8D	4F#	4A	4d
8CJ	.	.	.
4BB	[4G	4d	4g
4AA	8GL]	4a	4cc
.	8F#J	.	.
=2	=2	=2	=2
8GGL	4.G	4d	4b
8BBJ	.	.	.
4D	.	8.dL	4a
.	8F#	.	.
.	.	16cJk	.
4GG;	4D;	4B;	4g;
4E	4G	8BL	4g
.	.	8c#J	.
=3	=3	=3	=3
4D	8F#L	8dL	8aL
.	8G#J	8fJ	8bJ
4AA	4A	8eL	4ccnX
.	.	8f#J	.
8BBL	8DL	4g	4b
8CnXJ	8EJ	.	.
4D	4F#	8dL	4a
.	.	16AL	.
.	.	16BJJ	.
=4	=4	=4	=4
8CL	4GnX	2c	4e
8BBJ	.	.	.
4AA	4A	.	4f#
4GG;	4D;	4B;	4g;
=:|!	=:|!	=:|!	=:|!
*>B	*>B	*>B	*>B
8GL	4B	4d	4g
8F#J	.	.	.
=5	=5	=5	=5
8EL	8eL	8gL	4cc
8F#J	8dJ	[8aJ	.
[4G	4d	8aL]	4b
.	.	16gL	.
.	.	16f#JJ	.
8GL]	4c#	4e	4a
16AL	.	.	.
16GJJ	.	.	.
8F#L	4d	8aL	4dd
8BJ	.	8f#J	.
=6	=6	=6	=6
4G	8BL	8eL	4dd
.	8EJ	[8gJ	.
8AL	4A	8gL]	4cc#
8AAJ	.	16f#L	.
.	.	16eJJ	.
4D;	4A;	4f#;	4dd;
4BB	[4d	4g	4dd
=7	=7	=7	=7
8CL	8dL]	4g	4ee
8DJ	16cL	.	.
.	16BJJ	.	.
4E	8cL	4g	4cc
.	8eJ	.	.
8F#L	8dL	8aL	4.dd
8D	8c	8f#J	.
8E	8B	8gL	.
8F#J	8AJ	[8aJ	8cc
=8	=8	=8	=8
4G	16BLL	8a]	4b
.	16cJJ	.	.
.	4d	4g	.
4D	.	.	4a
.	8c	8f#	.
4E;	4B;	4e;	4g;
4E	4G	[4e	4b
=9	=9	=9	=9
4F#	4A	8eL]	4a
.	.	16dL	.
.	.	16cJJ	.
8GL	8GL	4B	4d
8F#J	8AJ	.	.
4E	4B	8eL	4g
.	.	8d	.
4AA	4A	8e	4cc
.	.	8f#J	.
=10	=10	=10	=10
8BBL	[4d	4.g	4b
8CJ	.	.	.
4D	8.dL]	.	4a
.	.	8f#	.
.	16cJk	.	.
4GG;	4B;	4d;	4g;
==	==	==	==
*-	*-	*-	*-
!!!YOR1: 371 vierstimmige Choralges&auml;nge von Johann Sebastian Bach, 
!!!YOR2: 4th ed. by Alfred D&ouml;rffel (Leipzig: Breitkopf und H&auml;rtel, 
!!!YOR2: c.1875). 178 pp. Plate "V.A.10".  reprint: J.S. Bach, 371 Four-Part 
!!!YOR4: Chorales (New York: Associated Music Publishers, Inc., c.1940).
!!!SMS: B&H, 4th ed, Alfred D&ouml;rffel, c.1875, plate V.A.10
!!!EED:  Craig Stuart Sapp
!!!EEV:  2009/05/22
